public/img/icon/general/vk.svg

<svg width="57" height="42" viewBox="0 0 57 42" fill="none" xmlns="http://www.w3.org/2000/svg">
<path fill-rule="evenodd" clip-rule="evenodd" d="M28.166 31.0748H30.3676C30.3676 31.0748 31.0327 31.006 31.3767 30.6391C31.6978 30.2951 31.6748 29.6759 31.6748 29.6759C31.6748 29.6759 31.629 26.7175 33.005 26.2818C34.358 25.846 36.101 29.1484 37.9356 30.4098C39.3346 31.373 40.3895 31.1666 40.3895 31.1666L45.3202 31.0978C45.3202 31.0978 47.8887 30.9372 46.6732 28.9191C46.5815 28.7586 45.9623 27.4284 43.0039 24.6764C39.9079 21.8098 40.3207 22.2684 44.0588 17.3148C46.3292 14.2877 47.2236 12.453 46.9484 11.6503C46.6732 10.8935 45.022 11.0999 45.022 11.0999L39.4722 11.1458C39.4722 11.1458 39.0594 11.0999 38.7612 11.2834C38.4631 11.4669 38.2796 11.8797 38.2796 11.8797C38.2796 11.8797 37.4082 14.2189 36.2386 16.214C33.7618 20.4108 32.7756 20.6402 32.3858 20.365C31.4455 19.7687 31.6748 17.934 31.6748 16.6268C31.6748 12.5677 32.294 10.8706 30.4823 10.4349C29.886 10.2973 29.4274 10.1826 27.8908 10.1826C25.9186 10.1597 24.2444 10.1826 23.2812 10.6642C22.6391 10.9623 22.1575 11.6733 22.4556 11.6962C22.8226 11.7421 23.6482 11.9255 24.0839 12.5218C24.6572 13.3015 24.6343 15.0215 24.6343 15.0215C24.6343 15.0215 24.9554 19.8146 23.8775 20.4108C23.1207 20.8236 22.1116 19.9751 19.91 16.1682C18.7863 14.2189 17.9378 12.0631 17.9378 12.0631C17.9378 12.0631 17.7772 11.6503 17.4791 11.4439C17.1351 11.1917 16.6306 11.0999 16.6306 11.0999L11.3559 11.1229C11.3559 11.1229 10.5533 11.1458 10.2781 11.4898C10.0258 11.7879 10.2551 12.4301 10.2551 12.4301C10.2551 12.4301 14.3831 22.085 19.0615 26.9468C23.3042 31.373 28.166 31.0748 28.166 31.0748Z" fill="#2963AD"/>
</svg>

<svg width="57" height="42" fill="none" xmlns="http://www.w3.org/2000/svg"><path fill-rule="evenodd" clip-rule="evenodd" d="M28.166 31.075h2.202s.665-.069 1.009-.436c.32-.344.298-.963.298-.963s-.046-2.958 1.33-3.394c1.353-.436 3.096 2.866 4.93 4.128 1.4.963 2.454.757 2.454.757l4.931-.07s2.569-.16 1.353-2.178c-.092-.16-.71-1.49-3.67-4.243-3.095-2.866-2.682-2.408 1.056-7.361 2.27-3.027 3.165-4.862 2.89-5.665-.276-.757-1.927-.55-1.927-.55l-5.55.046s-.413-.046-.71.137c-.299.184-.482.597-.482.597s-.872 2.339-2.041 4.334c-2.477 4.197-3.463 4.426-3.853 4.151-.94-.596-.711-2.431-.711-3.738 0-4.06.619-5.756-1.193-6.192-.596-.138-1.055-.252-2.591-.252-1.972-.023-3.647 0-4.61.481-.642.298-1.123 1.01-.825 1.032.367.046 1.192.23 1.628.826.573.78.55 2.5.55 2.5s.321 4.793-.756 5.389c-.757.413-1.766-.436-3.968-4.243-1.124-1.95-1.972-4.105-1.972-4.105s-.16-.413-.459-.62c-.344-.251-.848-.343-.848-.343l-5.275.023s-.803.023-1.078.367c-.252.298-.023.94-.023.94s4.128 9.655 8.806 14.517c4.243 4.426 9.105 4.128 9.105 4.128z" fill="#2963AD"/></svg>
